lenin-heart.svg

<svg height="121pt" viewBox="0 0 100 121" width="100pt" xmlns="http://www.w3.org/2000/svg"><g fill="#5b4106"><path d="m79.76 0h9.93c4.16 1.64 6.27 5.72 8.77 9.12-.23 2.73.36 6.18-2.42 7.82-.1-2.32-.13-4.63-.11-6.95-2.69-1.69-5.62-3.59-8.96-3.24-7.97.97-15.9 2.29-23.85 3.41-.03.17-.08.52-.11.69-.39.31-1.16.91-1.55 1.22-1.54.34-3.09.6-4.65.77-.35-.48-1.03-1.46-1.37-1.95.14-2.26.48-4.51.78-6.76 3.16-1.01 6.47-1.43 9.79-1.32 4.76.19 9.23-1.63 13.75-2.81z"/><path d="m0 12.43c4.08-3.56 5.8-9.69 11.03-11.8 5.7-.84 11.59-.34 17.07 1.46 5.43 1.79 11.27.54 16.75 2.08.56 2.65 1.28 5.42.21 8.06l-.7 1.37c-.87-.4-2.62-1.19-3.5-1.58-4.98-2.38-10.6-2.66-15.97-3.53-3.92-.41-7.78-1.4-11.72-1.56-5.23.71-9.8 3.91-13.17 7.86z"/><path d="m95.58 39.28c.57-.83 1.12-1.68 1.67-2.53-.15.44-.47 1.31-.62 1.74 1.47 2.94 2.41 6.08 3.14 9.27l.23-2.07v3.3l-.02 5.13c-1.47-4.94-3.15-9.83-4.4-14.84z"/><path d="m5.7 38.3c.19.28.56.83.75 1.1-.92 3.43-2.34 6.68-3.71 9.94-1.22-4.05 1.01-7.69 2.96-11.04z"/><path d="m51.31 56.14c8.42.88 16.36 4.13 24.74 5.25 2.27.4 4.3 1.54 6.44 2.34 1.19 2.56 1.45 5.64-.3 8.03-2.56-3.7-7.14-4.53-11.23-5.44-6.25-.77-12.58.14-18.85-.44-3.49-2.07-2.41-6.78-.8-9.74z"/><path d="m34.13 59.2c4.23-2.1 9.55-3.08 13.98-1.21.96 3.26-.06 6.67-1.67 9.53-5.45-.28-10.92.14-16.36-.29-3.75 1.47-6.98 4.1-10.3 6.36-.64.06-1.93.19-2.57.25.07-2.1-.31-4.29.32-6.32.75-2.09 3.24-2.06 4.88-3.04 3.65-2.3 7.87-3.39 11.72-5.28z"/><path d="m46.11 69.78c8.69.83 17.35-.81 25.94-1.93 3.69-.22 3.92 4.6 3.1 7.18-3.79 13.92-21.32 20.78-34.13 15.11-8.31-3.19-16.13-11.65-14.13-21.12 6.44-1.39 12.77.59 19.22.76z"/><path d="m32.34 94.2c4.49-.34 8.66 2.18 13.19 1.89.39-.63 1.16-1.89 1.55-2.52 4.26.19 8.58-.14 12.81.55.7.79 1.35 1.63 1.96 2.5 4.01.41 7.8-.88 11.13-3.03 1.21 2.82 2.4 5.81 1.63 8.94-1.49 3.33-3.56 6.51-6.64 8.58-4.23 3.6-9.88 4.56-14.46 7.58-.11.58-.33 1.73-.45 2.31h-.67c-3.09-1.85-6.36-3.35-9.74-4.57-6.18-2.42-11.08-7.29-13.96-13.2.69-3.09 1.01-6.97 3.65-9.03z"/></g><path d="m45.84 10.82c3.19-.34 6.43-.5 9.6.07.34.49 1.02 1.47 1.37 1.95 1.56-.17 3.11-.43 4.65-.77-4.95 2.86-8.17 8.21-7.79 14.01.51 9.84 4.96 19.43 11.7 26.57 1.6 1.92 4.33 1.13 6.45.85 9.08-2.17 18.01-6.65 23.76-14.22 1.25 5.01 2.93 9.9 4.4 14.84l.02-5.13v15.08c-1.3 9.95-5 19.67-11.73 27.23-3.8 4.57-8.67 8.07-13.66 11.23.77-3.13-.42-6.12-1.63-8.94-3.33 2.15-7.12 3.44-11.13 3.03-.61-.87-1.26-1.71-1.96-2.5-4.23-.69-8.55-.36-12.81-.55-.39.63-1.16 1.89-1.55 2.52-4.53.29-8.7-2.23-13.19-1.89-2.64 2.06-2.96 5.94-3.65 9.03-9.85-5.36-18.26-13.64-22.66-24.07-4.43-9.24-4.89-19.84-3.29-29.82 1.37-3.26 2.79-6.51 3.71-9.94 5.74 7.55 14.71 11.95 23.76 14.13 2.09.24 4.83 1.05 6.36-.89 7.86-8.4 13.08-20.21 10.95-31.85-.59-3.87-3.88-6.39-6.66-8.77.88.39 2.63 1.18 3.5 1.58l.7-1.37c.19-.36.58-1.06.78-1.41m5.47 45.32c-1.61 2.96-2.69 7.67.8 9.74 6.27.58 12.6-.33 18.85.44 4.09.91 8.67 1.74 11.23 5.44 1.75-2.39 1.49-5.47.3-8.03-2.14-.8-4.17-1.94-6.44-2.34-8.38-1.12-16.32-4.37-24.74-5.25m-17.18 3.06c-3.85 1.89-8.07 2.98-11.72 5.28-1.64.98-4.13.95-4.88 3.04-.63 2.03-.25 4.22-.32 6.32.64-.06 1.93-.19 2.57-.25 3.32-2.26 6.55-4.89 10.3-6.36 5.44.43 10.91.01 16.36.29 1.61-2.86 2.63-6.27 1.67-9.53-4.43-1.87-9.75-.89-13.98 1.21m11.98 10.58c-6.45-.17-12.78-2.15-19.22-.76-2 9.47 5.82 17.93 14.13 21.12 12.81 5.67 30.34-1.19 34.13-15.11.82-2.58.59-7.4-3.1-7.18-8.59 1.12-17.25 2.76-25.94 1.93z" fill="#ffcc4d"/><g fill="#e50000"><path d="m61.46 12.07c.39-.31 1.16-.91 1.55-1.22 3.35.48 7.09-.01 10.04 2.01 2.8 1.5 4.42 4.33 6.06 6.93 2.57-.87 5.19-2.08 7.98-1.8 4.17.46 8.28 2.79 10.25 6.6 1.95 3.76 1.77 8.39-.09 12.16-.55.85-1.1 1.7-1.67 2.53-5.75 7.57-14.68 12.05-23.76 14.22-2.12.28-4.85 1.07-6.45-.85-6.74-7.14-11.19-16.73-11.7-26.57-.38-5.8 2.84-11.15 7.79-14.01z"/><path d="m29.47 12.5c3.48-2.05 7.67-1.38 11.39-.48 2.78 2.38 6.07 4.9 6.66 8.77 2.13 11.64-3.09 23.45-10.95 31.85-1.53 1.94-4.27 1.13-6.36.89-9.05-2.18-18.02-6.58-23.76-14.13-.19-.27-.56-.82-.75-1.1-4.93-5.9-2.59-15.84 4.44-18.93 3.98-2.31 8.62-1.31 12.62.35 1.78-2.76 3.65-5.73 6.71-7.22z"/></g></svg>

<svg xmlns="http://www.w3.org/2000/svg" width="100pt" height="121pt" viewBox="0 0 100 121"><g fill="#5b4106"><path d="M 79.76 0.00 L 89.69 0.00 C 93.85 1.64 95.96 5.72 98.46 9.12 C 98.23 11.85 98.82 15.30 96.04 16.94 C 95.94 14.62 95.91 12.31 95.93 9.99 C 93.24 8.30 90.31 6.40 86.97 6.75 C 79.00 7.72 71.07 9.04 63.12 10.16 C 63.09 10.33 63.04 10.68 63.01 10.85 C 62.62 11.16 61.85 11.76 61.46 12.07 C 59.92 12.41 58.37 12.67 56.81 12.84 C 56.46 12.36 55.78 11.38 55.44 10.89 C 55.58 8.63 55.92 6.38 56.22 4.13 C 59.38 3.12 62.69 2.70 66.01 2.81 C 70.77 3.00 75.24 1.18 79.76 0.00 Z"/><path d="M 0.00 12.43 C 4.08 8.87 5.80 2.74 11.03 0.63 C 16.73 -0.21 22.62 0.29 28.10 2.09 C 33.53 3.88 39.37 2.63 44.85 4.17 C 45.41 6.82 46.13 9.59 45.06 12.23 L 44.36 13.60 C 43.49 13.20 41.74 12.41 40.86 12.02 C 35.88 9.64 30.26 9.36 24.89 8.49 C 20.97 8.08 17.11 7.09 13.17 6.93 C 7.94 7.64 3.37 10.84 0.00 14.79 L 0.00 12.43 Z"/><path d="M 95.58 39.28 C 96.15 38.45 96.70 37.60 97.25 36.75 C 97.10 37.19 96.78 38.06 96.63 38.49 C 98.10 41.43 99.04 44.57 99.77 47.76 L 100.00 45.69 L 100.00 48.99 L 99.98 54.12 C 98.51 49.18 96.83 44.29 95.58 39.28 Z"/><path d="M 5.70 38.30 C 5.89 38.58 6.26 39.13 6.45 39.40 C 5.53 42.83 4.11 46.08 2.74 49.34 C 1.52 45.29 3.75 41.65 5.70 38.30 Z"/><path d="M 51.31 56.14 C 59.73 57.02 67.67 60.27 76.05 61.39 C 78.32 61.79 80.35 62.93 82.49 63.73 C 83.68 66.29 83.94 69.37 82.19 71.76 C 79.63 68.06 75.05 67.23 70.96 66.32 C 64.71 65.55 58.38 66.46 52.11 65.88 C 48.62 63.81 49.70 59.10 51.31 56.14 Z"/><path d="M 34.13 59.20 C 38.36 57.10 43.68 56.12 48.11 57.99 C 49.07 61.25 48.05 64.66 46.44 67.52 C 40.99 67.24 35.52 67.66 30.08 67.23 C 26.33 68.70 23.10 71.33 19.78 73.59 C 19.14 73.65 17.85 73.78 17.21 73.84 C 17.28 71.74 16.90 69.55 17.53 67.52 C 18.28 65.43 20.77 65.46 22.41 64.48 C 26.06 62.18 30.28 61.09 34.13 59.20 Z"/><path d="M 46.11 69.78 C 54.80 70.61 63.46 68.97 72.05 67.85 C 75.74 67.63 75.97 72.45 75.15 75.03 C 71.36 88.95 53.83 95.81 41.02 90.14 C 32.71 86.95 24.89 78.49 26.89 69.02 C 33.33 67.63 39.66 69.61 46.11 69.78 Z"/><path d="M 32.34 94.20 C 36.83 93.86 41.00 96.38 45.53 96.09 C 45.92 95.46 46.69 94.20 47.08 93.57 C 51.34 93.76 55.66 93.43 59.89 94.12 C 60.59 94.91 61.24 95.75 61.85 96.62 C 65.86 97.03 69.65 95.74 72.98 93.59 C 74.19 96.41 75.38 99.40 74.61 102.53 C 73.12 105.86 71.05 109.04 67.97 111.11 C 63.74 114.71 58.09 115.67 53.51 118.69 C 53.40 119.27 53.18 120.42 53.06 121.00 L 52.39 121.00 C 49.30 119.15 46.03 117.65 42.65 116.43 C 36.47 114.01 31.57 109.14 28.69 103.23 C 29.38 100.14 29.70 96.26 32.34 94.20 Z"/></g><path fill="#ffcc4d" d="M 45.84 10.82 C 49.03 10.48 52.27 10.32 55.44 10.89 C 55.78 11.38 56.46 12.36 56.81 12.84 C 58.37 12.67 59.92 12.41 61.46 12.07 C 56.51 14.93 53.29 20.28 53.67 26.08 C 54.18 35.92 58.63 45.51 65.37 52.65 C 66.97 54.57 69.70 53.78 71.82 53.50 C 80.90 51.33 89.83 46.85 95.58 39.28 C 96.83 44.29 98.51 49.18 99.98 54.12 L 100.00 48.99 L 100.00 64.07 C 98.70 74.02 95.00 83.74 88.27 91.30 C 84.47 95.87 79.60 99.37 74.61 102.53 C 75.38 99.40 74.19 96.41 72.98 93.59 C 69.65 95.74 65.86 97.03 61.85 96.62 C 61.24 95.75 60.59 94.91 59.89 94.12 C 55.66 93.43 51.34 93.76 47.08 93.57 C 46.69 94.20 45.92 95.46 45.53 96.09 C 41.00 96.38 36.83 93.86 32.34 94.20 C 29.70 96.26 29.38 100.14 28.69 103.23 C 18.84 97.87 10.43 89.59 6.03 79.16 C 1.60 69.92 1.14 59.32 2.74 49.34 C 4.11 46.08 5.53 42.83 6.45 39.40 C 12.19 46.95 21.16 51.35 30.21 53.53 C 32.30 53.77 35.04 54.58 36.57 52.64 C 44.43 44.24 49.65 32.43 47.52 20.79 C 46.93 16.92 43.64 14.40 40.86 12.02 C 41.74 12.41 43.49 13.20 44.36 13.60 L 45.06 12.23 C 45.25 11.87 45.64 11.17 45.84 10.82 M 51.31 56.14 C 49.70 59.10 48.62 63.81 52.11 65.88 C 58.38 66.46 64.71 65.55 70.96 66.32 C 75.05 67.23 79.63 68.06 82.19 71.76 C 83.94 69.37 83.68 66.29 82.49 63.73 C 80.35 62.93 78.32 61.79 76.05 61.39 C 67.67 60.27 59.73 57.02 51.31 56.14 M 34.13 59.20 C 30.28 61.09 26.06 62.18 22.41 64.48 C 20.77 65.46 18.28 65.43 17.53 67.52 C 16.90 69.55 17.28 71.74 17.21 73.84 C 17.85 73.78 19.14 73.65 19.78 73.59 C 23.10 71.33 26.33 68.70 30.08 67.23 C 35.52 67.66 40.99 67.24 46.44 67.52 C 48.05 64.66 49.07 61.25 48.11 57.99 C 43.68 56.12 38.36 57.10 34.13 59.20 M 46.11 69.78 C 39.66 69.61 33.33 67.63 26.89 69.02 C 24.89 78.49 32.71 86.95 41.02 90.14 C 53.83 95.81 71.36 88.95 75.15 75.03 C 75.97 72.45 75.74 67.63 72.05 67.85 C 63.46 68.97 54.80 70.61 46.11 69.78 Z"/><g fill="#e50000"><path d="M 61.46 12.07 C 61.85 11.76 62.62 11.16 63.01 10.85 C 66.36 11.33 70.10 10.84 73.05 12.86 C 75.85 14.36 77.47 17.19 79.11 19.79 C 81.68 18.92 84.30 17.71 87.09 17.99 C 91.26 18.45 95.37 20.78 97.34 24.59 C 99.29 28.35 99.11 32.98 97.25 36.75 C 96.70 37.60 96.15 38.45 95.58 39.28 C 89.83 46.85 80.90 51.33 71.82 53.50 C 69.70 53.78 66.97 54.57 65.37 52.65 C 58.63 45.51 54.18 35.92 53.67 26.08 C 53.29 20.28 56.51 14.93 61.46 12.07 Z"/><path d="M 29.47 12.50 C 32.95 10.45 37.14 11.12 40.86 12.02 C 43.64 14.40 46.93 16.92 47.52 20.79 C 49.65 32.43 44.43 44.24 36.57 52.64 C 35.04 54.58 32.30 53.77 30.21 53.53 C 21.16 51.35 12.19 46.95 6.45 39.40 C 6.26 39.13 5.89 38.58 5.70 38.30 C 0.77 32.40 3.11 22.46 10.14 19.37 C 14.12 17.06 18.76 18.06 22.76 19.72 C 24.54 16.96 26.41 13.99 29.47 12.50 Z"/></g></svg>
